X:453
T: ES KAMEN DREI SCHNEIDER WOHL AN DEN RHEIN
N: F0852
O: Europa, Mitteleuropa, Deutschland
R: erzaehlendes Volks - Lied, Ballade, Spott
M: 6/8
L: 1/16
K: Bb
F2 | F2D2F2B3BB2 | B3AB2c4
c2 | d2d2c2d2d2c2 | B3cd2c4
FA | c6z4C2 | F6z4
F2 | d3cB2B2A2G2 | F4E2D4
F2 | B3BB2B2B2B2 | c2B2c2d4
eg | f6z4Ac | B6z4

